build/images/svg/twitter.svg

<svg width="17" height="14" viewBox="0 0 17 14" fill="none" xmlns="http://www.w3.org/2000/svg">
  <path d="M15.2526 3.48905C15.2634 3.64217 15.2634 3.79532 15.2634 3.94844C15.2634 8.61873 11.7577 14 5.35027 14C3.37627 14 1.54252 13.4203 0 12.4141C0.280468 12.4469 0.550112 12.4578 0.84137 12.4578C2.47016 12.4578 3.96955 11.9 5.16689 10.9485C3.63516 10.9156 2.35152 9.89845 1.90925 8.49844C2.12501 8.53123 2.34073 8.55311 2.56728 8.55311C2.88008 8.55311 3.19292 8.50934 3.48415 8.43282C1.8877 8.10467 0.690329 6.68281 0.690329 4.96562V4.92189C1.15415 5.18439 1.69353 5.34845 2.26519 5.3703C1.32674 4.73591 0.711911 3.65311 0.711911 2.4281C0.711911 1.77186 0.884468 1.1703 1.18652 0.645296C2.90163 2.78904 5.4797 4.18902 8.37054 4.34217C8.31662 4.07967 8.28425 3.80626 8.28425 3.53282C8.28425 1.58592 9.83756 0 11.7684 0C12.7716 0 13.6776 0.426561 14.3141 1.11562C15.1015 0.962507 15.8566 0.66718 16.5254 0.262502C16.2665 1.08283 15.7164 1.7719 14.9937 2.20937C15.6948 2.13284 16.3744 1.93592 17 1.66251C16.5255 2.36248 15.9321 2.9859 15.2526 3.48905Z" fill="black"/>
</svg>

<svg width="17" height="14" fill="none" xmlns="http://www.w3.org/2000/svg"><path d="M15.253 3.489c.01.153.01.306.01.46C15.263 8.618 11.758 14 5.35 14A9.748 9.748 0 010 12.414c.28.033.55.044.841.044a6.917 6.917 0 004.326-1.51 3.497 3.497 0 01-3.258-2.45 3.66 3.66 0 001.575-.065A3.521 3.521 0 01.69 4.966v-.044a3.473 3.473 0 001.575.448A3.543 3.543 0 01.712 2.428c0-.656.172-1.258.475-1.783A9.86 9.86 0 008.37 4.342a4.042 4.042 0 01-.087-.81C8.284 1.587 9.838 0 11.768 0c1.004 0 1.91.427 2.546 1.116a6.802 6.802 0 002.211-.853 3.515 3.515 0 01-1.531 1.946A6.91 6.91 0 0017 1.663a7.548 7.548 0 01-1.747 1.826z" fill="#000"/></svg>
